X: 20821
T: C'EST L' AMOUR
T: (It's Love)
%R: jig
B: "Edinburgh Repository of Music" v.2 p.82 #1
F: http://digital.nls.uk/special-collections-of-printed-music/pageturner.cfm?id=87776133
Z: 2015 John Chambers <jc:trillian.mit.edu>
M: 6/8
L: 1/8
K: F
[|"_P."\
c2c c2c | c2c c2c | f2f {g}fef | (^f3 g2)z |\
"_P."c2c c2c | c2c c2c | g2g gag | f2z cde |\
f2f (fg)f | e3 "_Cres:"(ef^f) | g2g (gag) | f2z (c"_F."de) |
f2f (fgf) | e3 (ef^f) | g2g gag | f3 zz"_P."c |\
b3 (gab) | a3- a2f | e2e ({f}ede) | (f3 c2)c |\
(b3 g)gb | a3- agf | e2e {f}ede | (f3 f2) |]

%%sep 2 1 500
%%sep 1 1 500

